X:1
T:Peacock's Feather #1, The
R:hornpipe
M:C|
K:Ddor
AG|FDEC D2DE|FEFA G2^FG|Addc dcAG|FDA,B, C2AG|
FDEC D2DE|FEFA G2^FG|Addc dcAG|F2D2 D2:|
AB|c2cA d2dc|dcA^F G2AB|c2Ad dcAG|FDA,B, C2AG|
FDEC D2DE|FEFA G2^FG|Addc dcAG|F2D2 D2:|
</abc>
